X:1
T:Wär Gott nicht mit uns
T:Balthasar Resinarius
T:Source: DDT 34---Leipzig---Breitkopt & Härtel---J.Wolf---1908. First print : Newe Deudsche Geistliche Gesenge---Wittemberg---G.Rhau---1544. Editor : André Vierendeels (24/07/17).
T:Notes : Original clefs : C1, C3, C4, F4 Original note values have been halved Editorial accidentals above the staff 
T:Wär Gott nicht mit uns
T:©
T:©
T:©
C:Balthasar Resinarius
Z:©
%%score [ 1 2 3 4 ]
L:1/8
Q:1/4=120
M:2/2
K:F
V:1 treble nm="Soprano" snm="S"
V:2 treble nm="Alto" snm="A"
V:3 treble-8 nm="Tenor" snm="T"
V:4 bass nm="Bass" snm="B"
V:1
 z4 G4 | A4 B4 | c4 d4 | z4 c4 | B4 G2 c2- | c2 B2 c4 | B3 A/B/ c4 | z2 c2 B4 | G4 c4 | d4 B4 | %10
w: Wär|Gott nicht|mit uns|die-|||se _ _ Zeit,|so soll|Is- ra-|el sa-|
w: Wär|Gott nicht|mit uns|die-|||se _ _ Zeit,|wir hät-|ten müszt|ver- za-|
 c3 B AG A2- |"^#" AG G4 F2 |1 G8 :|2 G4 z2 c2 || d4 c4 | A4 B4 | A2 c4 B2 | c8 | B2 B4 A2 | %19
w: ||gen,|* die|so ein|ar- mes|Häuf- * *||* lein- *|
w: |||gen, *||||||
 B4 z2 G2 | A4 B4 | c2 A2 d4 | c3 B AG A2- |"^#" AG G4 F2 | G4 z2 G2 | A4 BAGF | G8 | z4 d4 | %28
w: sind, ver-|acht von|so _ viel|Men- * * * *|* * * schen|Kind, die|an _ _ _ _|uns|set-|
w: |||||||||
 c3 B AG A2- |"^#" AG G4 F2 | G8 |] %31
w: * * * * zen-|* * al- *|le.|
w: |||
V:2
 D4 E4 | F4 G4 | A4 z4 | G4 F4 | D2 G4 F2 | G4 F3 E/F/ | G4 z2 G2 | F4 D4 | G4 A4 | F4 G3 F | %10
w: Wär Gott|nicht mit|uns|die- *||* se _ _|Zeit, so|soll Is-|ra- el|sa- * *|
w: Wär Gott|nicht mit|uns|die- *||* se _ _|Zeit, wir|hät- ten|müszt ver-|za- * *|
 ED E3 D D2- | D2 C2 D4 |1 z8 :|2 z2 G2 A4 || G4 E4 |"^b" F4 E2 G2- | G2 F2 G4- | G4 F2 F2- | %18
w: |* * gen,||die so|ein ar-|* mes Häuf-|||
w: |* * gen,|||||||
"^b" F2 E2 F4 |"^-natural" z2 D2 E4 | F4 G2 E2 | A4 G3 F | ED E3 D D2- | D2 C2 D4 | %24
w: * lein sind,|ver- acht|von so _|viel Men- *||* schen Kind,|
w: ||||||
"^-natural" z2 D2 E4 | FEDC D4- | D4 z4 | A4 G3 F | ED E3 D D2- | D2 C2 D4- | D8 |] %31
w: die an|_ _ _ _ uns|_|set- * *|* * * zen al-|* * le.|_|
w: |||||||
V:3
 z8 | z8 | z8 | G4 A4 | B4 c4 | d4 c4 | d4 c4 | z8 | z4 z2 c2 | B4 G4 | c4 d3 c | BA G2 A4 |1 %12
w: |||Wär Gott|nicht mit|uns die-|se Zeit,||so|soll Is-|ra- el _|_ _ _ sa-|
w: |||Wär Gott|nicht mit|uns die-|se Zeit,||wir|hät- ten|müszt ver- *|* * * za-|
 G8 :|2 G4 z4 || z8 | z8 | z2 c2 d4 | c4 A4 | B4 c4 | B4 G4 | z4 z2 G2 | c4 B4 | c4 d3 c | %23
w: gen,||||die so|ein ar-|mes Häuf-|lein sind,|ver-|acht von|so viel _|
w: gen,|gen,||||||||||
 B2 G2 A4 | G4 z4 | z8 | z4 z2 G2 | A4 B4 | c4 d3 c | BA G2 A4 | G8 |] %31
w: _ Men- schen|Kind,||die|an uns|set- * *|* * zen al-|le.|
w: ||||||||
V:4
 z8 | z8 | z4 D,4 | E,4 F,4 | G,4 A,4 | G,4 A,4 | G,4 z4 | z8 | z2 G,2 F,4 | D,4 G,4 | %10
w: ||Wär|Gott nicht|mit uns|die- se|Zeit,||so soll|Is- ra-|
w: ||Wär|Gott nicht|mit uns|die- se|Zeit,||wir hät-|ten müszt|
 A,3 G, F,E, D,2 |"^b" E,4 D,4 |1 z8 :|2 z8 || z8 | z4 z2 G,2 | A,4 G,4 |"^b" E,4 F,4 | G,4 F,4 | %19
w: el _ _ _ _|sa- gen,||||die|so ein|ar- mes|Häuf- lein|
w: ver- * * * *|za- gen,||||||||
 D,4 z4 | z2 D,2 G,4 | F,4 G,4 | A,3 G, F,2 D,2 |"^b" E,4 D,4 | z8 | z8 | z2 D,2 E,4 | F,4 G,4 | %28
w: sind,|ver- acht|von so|viel _ _ Men-|schen Kind,|||die an|uns set-|
w: |||||||||
 A,3 G, F,E, D,2 |"^b" E,4 D,4 | G,,8 |] %31
w: * * * * zen|al- *|le.|
w: |||

